file/nescafe.svg

<svg clip-rule="evenodd" fill-rule="evenodd" stroke-linejoin="round" stroke-miterlimit="1.41421" viewBox="0 0 560 400" xmlns="http://www.w3.org/2000/svg"><g transform="matrix(3.33834 0 0 3.33834 100 149.162)"><path d="m4.922 3.801c-.285 1.795-.893 3.529-2.233 4.985-.638.69-1.556 1.418-2.42 1.696h3.665c1.122 0 3.317-.574 4.478-1.824 2.104-2.291 2.071-4.804 2.522-8.201h-3.156c-.799 0-2.335.043-2.856 3.344" fill="#eb2227" fill-opacity=".9" transform="translate(92.4324)"/><g fill="#111"><path d="m84.337 3.504h-66.654v18.874c-.341.203-1.333.295-2.111.295-2.628 0-3.578-.85-4.977-3.372l-6.744-11.986v15.023h-3.851v-21.894c.342-.201 1.327-.307 2.108-.307 2.627 0 3.578.854 4.979 3.367l6.775 11.97v-14.993h75.194c0 2.127-3.626 3.023-4.719 3.023" transform="translate(0 6.48649)"/><path d="m102.101 12.973v3.158h-7.077v3.53h6.099v3.151h-6.099c0 1.305.03 2.446.47 3.117.504.776 1.483.918 3.103.918 1.179 0 2.389-.172 3.565-.534v2.944c-.972.495-2.524.743-3.973.743-2.762 0-4.848-.461-6.068-1.694-.941-.997-1.31-3.087-1.31-5.424v-9.909zm-70.544 0v3.158h-7.08v3.53h6.104v3.151h-6.104c0 1.305.034 2.446.473 3.117.507.775 1.487.918 3.1.918 1.181 0 2.393-.172 3.572-.534v2.943c-.979.495-2.525.744-3.975.744-2.765 0-4.853-.461-6.068-1.7-.945-.991-1.309-3.081-1.309-5.418v-9.909zm57.632 0v3.159h-7.109v3.531h6.498v3.15h-6.498v7.187c-2.274 0-4.242-.318-4.242-2.759v-14.268zm-18.225 0c1.912 3.732 3.963 10.316 5.252 16.216h-4.751c-.17-.938-.373-1.997-.605-3.06h-5.633c-.235 1.063-.407 2.092-.543 3.06h-3.873c1.396-6.842 3.067-12.48 5.15-16.216zm36.874 14.589c0 .909-.712 1.627-1.617 1.627-.904 0-1.626-.718-1.626-1.627 0-.905.722-1.616 1.634-1.616.897 0 1.609.711 1.609 1.616zm-54.883-2.319c-.473-.728-.607-2.216-.607-4.572 0-2.351.134-3.803.607-4.565.434-.687 1.547-.858 2.726-.858 1.08 0 2.091.135 3.172.516v-2.909c-.877-.449-2.228-.693-3.472-.693-2.328 0-4.648.345-5.928 1.698-1.212 1.284-1.615 3.973-1.615 6.811 0 2.834.403 5.506 1.615 6.787 1.28 1.385 3.6 1.731 5.928 1.731 1.144 0 2.358-.172 3.165-.588l.643-3.016c-1.182.381-2.192.522-3.508.522-1.179 0-2.292-.168-2.726-.864zm-14.594-7.526c-.516-.349-.41-1.723 0-2.031.413-.315 1.03-.412 2.164-.412 1.72 0 3.156.307 4.639.755v-2.936c-.689-.416-2.409-.931-4.842-.931-1.961 0-3.814.275-5.192 1.585-1.269 1.211-1.541 5.388-.132 6.871 1.441 1.522 5.285 2.075 6.663 3.011.513.342.375 1.724 0 2.03-.345.286-1.032.453-2.166.453-1.717 0-3.401-.344-4.98-.794v2.974c.792.447 2.437.897 5.047.897 1.787 0 3.949-.345 5.22-1.313 1.65-1.277 1.992-5.287.414-7.016-1.372-1.522-5.463-2.211-6.835-3.143zm66.637 9.845c0 .721.53 1.29 1.231 1.29.685.012 1.204-.569 1.204-1.281 0-.717-.519-1.298-1.22-1.298-.685 0-1.215.581-1.215 1.289zm.973.837h-.366v-1.612c.144-.021.347-.05.608-.05.297 0 .434.05.539.126.095.068.162.186.162.346 0 .197-.145.326-.327.384v.02c.154.05.232.174.28.395.047.244.087.333.118.391h-.387c-.05-.058-.077-.195-.126-.391-.028-.169-.124-.248-.327-.248h-.174zm.012-.906h.171c.203 0 .367-.069.367-.234 0-.148-.107-.249-.338-.249-.096 0-.163.01-.2.022zm-35.755-4.086c-.63-2.345-1.364-4.615-2.272-6.437-.84 2.029-1.571 4.262-2.131 6.437z"/></g></g></svg>

<?xml version="1.0" encoding="UTF-8" standalone="no"?>
<!DOCTYPE svg PUBLIC "-//W3C//DTD SVG 1.1//EN" "http://www.w3.org/Graphics/SVG/1.1/DTD/svg11.dtd">
<svg width="100%" height="100%" viewBox="0 0 560 400" version="1.1" xmlns="http://www.w3.org/2000/svg" xmlns:xlink="http://www.w3.org/1999/xlink" xml:space="preserve" xmlns:serif="http://www.serif.com/" style="fill-rule:evenodd;clip-rule:evenodd;stroke-linejoin:round;stroke-miterlimit:1.41421;">
    <g transform="matrix(3.33834,0,0,3.33834,100,149.162)">
        <g id="Group-3" transform="matrix(1,0,0,1,92.4324,0)">
            <path id="Fill-1" d="M4.922,3.801C4.637,5.596 4.029,7.33 2.689,8.786C2.051,9.476 1.133,10.204 0.269,10.482L3.934,10.482C5.056,10.482 7.251,9.908 8.412,8.658C10.516,6.367 10.483,3.854 10.934,0.457L7.778,0.457C6.979,0.457 5.443,0.5 4.922,3.801" style="fill:rgb(235,34,39);fill-opacity:0.9;"/>
        </g>
        <g id="Group-8" transform="matrix(1,0,0,1,0,6.48649)">
            <path id="Fill-6" d="M84.337,3.504L17.683,3.504L17.683,22.378C17.342,22.581 16.35,22.673 15.572,22.673C12.944,22.673 11.994,21.823 10.595,19.301L3.851,7.315L3.851,22.338L0,22.338L0,0.444C0.342,0.243 1.327,0.137 2.108,0.137C4.735,0.137 5.686,0.991 7.087,3.504L13.862,15.474L13.862,0.481L89.056,0.481C89.056,2.608 85.43,3.504 84.337,3.504" style="fill:rgb(17,17,17);"/>
        </g>
        <path id="Fill-4" d="M102.101,12.973L102.101,16.131L95.024,16.131L95.024,19.661L101.123,19.661L101.123,22.812L95.024,22.812C95.024,24.117 95.054,25.258 95.494,25.929C95.998,26.705 96.977,26.847 98.597,26.847C99.776,26.847 100.986,26.675 102.162,26.313L102.162,29.257C101.19,29.752 99.638,30 98.189,30C95.427,30 93.341,29.539 92.121,28.306C91.18,27.309 90.811,25.219 90.811,22.882L90.811,12.973L102.101,12.973ZM31.557,12.973L31.557,16.131L24.477,16.131L24.477,19.661L30.581,19.661L30.581,22.812L24.477,22.812C24.477,24.117 24.511,25.258 24.95,25.929C25.457,26.704 26.437,26.847 28.05,26.847C29.231,26.847 30.443,26.675 31.622,26.313L31.622,29.256C30.643,29.751 29.097,30 27.647,30C24.882,30 22.794,29.539 21.579,28.3C20.634,27.309 20.27,25.219 20.27,22.882L20.27,12.973L31.557,12.973ZM89.189,12.973L89.189,16.132L82.08,16.132L82.08,19.663L88.578,19.663L88.578,22.813L82.08,22.813L82.08,30C79.806,30 77.838,29.682 77.838,27.241L77.838,12.973L89.189,12.973ZM70.964,12.973C72.876,16.705 74.927,23.289 76.216,29.189L71.465,29.189C71.295,28.251 71.092,27.192 70.86,26.129L65.227,26.129C64.992,27.192 64.82,28.221 64.684,29.189L60.811,29.189C62.207,22.347 63.878,16.709 65.961,12.973L70.964,12.973ZM107.838,27.562C107.838,28.471 107.126,29.189 106.221,29.189C105.317,29.189 104.595,28.471 104.595,27.562C104.595,26.657 105.317,25.946 106.229,25.946C107.126,25.946 107.838,26.657 107.838,27.562ZM52.955,25.243C52.482,24.515 52.348,23.027 52.348,20.671C52.348,18.32 52.482,16.868 52.955,16.106C53.389,15.419 54.502,15.248 55.681,15.248C56.761,15.248 57.772,15.383 58.853,15.764L58.853,12.855C57.976,12.406 56.625,12.162 55.381,12.162C53.053,12.162 50.733,12.507 49.453,13.86C48.241,15.144 47.838,17.833 47.838,20.671C47.838,23.505 48.241,26.177 49.453,27.458C50.733,28.843 53.053,29.189 55.381,29.189C56.525,29.189 57.739,29.017 58.546,28.601L59.189,25.585C58.007,25.966 56.997,26.107 55.681,26.107C54.502,26.107 53.389,25.939 52.955,25.243ZM38.361,17.717C37.845,17.368 37.951,15.994 38.361,15.686C38.774,15.371 39.391,15.274 40.525,15.274C42.245,15.274 43.681,15.581 45.164,16.029L45.164,13.093C44.475,12.677 42.755,12.162 40.322,12.162C38.361,12.162 36.508,12.437 35.13,13.747C33.861,14.958 33.589,19.135 34.998,20.618C36.439,22.14 40.283,22.693 41.661,23.629C42.174,23.971 42.036,25.353 41.661,25.659C41.316,25.945 40.629,26.112 39.495,26.112C37.778,26.112 36.094,25.768 34.515,25.318L34.515,28.292C35.307,28.739 36.952,29.189 39.562,29.189C41.349,29.189 43.511,28.844 44.782,27.876C46.432,26.599 46.774,22.589 45.196,20.86C43.824,19.338 39.733,18.649 38.361,17.717ZM104.998,27.562C104.998,28.283 105.528,28.852 106.229,28.852C106.914,28.864 107.433,28.283 107.433,27.571C107.433,26.854 106.914,26.273 106.213,26.273C105.528,26.273 104.998,26.854 104.998,27.562ZM105.971,28.399L105.605,28.399L105.605,26.787C105.749,26.766 105.952,26.737 106.213,26.737C106.51,26.737 106.647,26.787 106.752,26.863C106.847,26.931 106.914,27.049 106.914,27.209C106.914,27.406 106.769,27.535 106.587,27.593L106.587,27.613C106.741,27.663 106.819,27.787 106.867,28.008C106.914,28.252 106.954,28.341 106.985,28.399L106.598,28.399C106.548,28.341 106.521,28.204 106.472,28.008C106.444,27.839 106.348,27.76 106.145,27.76L105.971,27.76L105.971,28.399ZM105.983,27.493L106.154,27.493C106.357,27.493 106.521,27.424 106.521,27.259C106.521,27.111 106.414,27.01 106.183,27.01C106.087,27.01 106.02,27.02 105.983,27.032L105.983,27.493ZM70.228,23.407C69.598,21.062 68.864,18.792 67.956,16.97C67.116,18.999 66.385,21.232 65.825,23.407L70.228,23.407Z" style="fill:rgb(17,17,17);"/>
    </g>
</svg>
